X:1
T:Laufer, 76.76 D
T:Laufer, 76.76 D
T:Emily Swan Perkins, 1924
T:Courtesy of the Cyber Hymnal™
C:Emily Swan Perkins, 1924
Z:Courtesy of the Cyber Hymnal™
%%score ( 1 2 ) ( 3 4 )
L:1/8
Q:1/4=110
M:4/4
K:F
V:1 treble 
V:2 treble 
V:3 bass 
V:4 bass 
V:1
 [FA]2 | [FA]2 [FB]2 [Fc]2 [=B,F]2 | [B,F]4 [CE]2 [CF]2 | [CG]2 [_EA]2 [DB]2 [=EB]2 | [FA]6 [FA]2 | %5
 [F^G]2 [FA]2 [^D=B]2 [Dc]2 | [Ec]4 [CE]2 [CF]2 | [CG]2 [CE]2 [CD]2 [=B,G]2 | [CG]6 C2 | %9
 [CB]2 [DB]2 [Ec]2 [EG]2 | [FB]4 [FA]2 [CA]2 | [^CA]2 [CE]2 [CF]2 [CG]2 | [DF]6 [DF]2 | %13
 [FG]2 [FG]2 [F^G]2 [FG]2 | (A2 d2) [Fc]2 [=B,F]2 | [CF]2 [B,D]2 [B,G]3 [B,F] | [A,F]6 |] %17
V:2
 x2 | x8 | x8 | x8 | x8 | x8 | x8 | x8 | x6 C2 | x8 | x8 | x8 | x8 | x8 | F4 x4 | x8 | x6 |] %17
V:3
 [F,C]2 | [F,C]2 [D,D]2 [A,,C]2 (G,F,) | [C,G,]4 [C,B,]2 [D,B,]2 | [E,B,]2 [^F,C]2 [G,B,]2 [C,C]2 | %4
 [F,C]6 [F,C]2 | [F,=B,]2 [F,C]2 [^F,B,]2 [F,A,]2 | [G,C]4 A,2 [D,A,]2 | %7
 [G,,E,]2 [G,,G,]2 [G,,F,]2 [G,,F,]2 | [C,E,]6 C,2 | [C,E,]2 [C,F,]2 [C,G,]2 [C,C]2 | %10
 [F,D]4 [F,C]2 F,2 | [A,,A,]2 [G,A,]2 [F,A,]2 [E,A,]2 | [D,A,]6 [D,A,]2 | %13
 [D,=B,]2 [D,B,]2 [_D,B,]2 [D,B,]2 | ([C,C]2 [G,,B,]2) [A,,C]2 [D,G,]2 | %15
 [C,A,]2 [C,F,]2 [C,E,]3 [F,,C,F,] | [F,,C,F,]6 |] %17
V:4
 x2 | x6 D,2 | x8 | x8 | x8 | x8 | x4 A,2 x2 | x8 | x6 C,2 | x8 | x6 F,2 | x8 | x8 | x8 | x8 | x8 | %16
 x6 |] %17

